packages/katcn/src/icons/svg/link-solid.svg

<svg width="24" height="24" viewBox="0 0 24 24" fill="none" xmlns="http://www.w3.org/2000/svg">
<path fill-rule="evenodd" clip-rule="evenodd" d="M17.9725 6.02755C16.6024 4.65748 14.4465 4.65748 13.0764 6.02755L11.4142 7.68977C10.6332 8.47082 9.36684 8.47082 8.58579 7.68977C7.80474 6.90872 7.80474 5.64239 8.58579 4.86134L10.248 3.19912C13.1802 0.26696 17.8687 0.26696 20.8009 3.19912C23.733 6.13128 23.733 10.8198 20.8009 13.752L19.1387 15.4142C18.3576 16.1953 17.0913 16.1953 16.3102 15.4142C15.5292 14.6332 15.5292 13.3668 16.3102 12.5858L17.9725 10.9236C19.3425 9.5535 19.3425 7.39761 17.9725 6.02755ZM16.4142 7.58579C17.1953 8.36684 17.1953 9.63317 16.4142 10.4142L10.4142 16.4142C9.63316 17.1953 8.36684 17.1953 7.58579 16.4142C6.80474 15.6332 6.80474 14.3668 7.58579 13.5858L13.5858 7.58579C14.3668 6.80474 15.6332 6.80474 16.4142 7.58579ZM7.68977 8.58579C8.47082 9.36684 8.47082 10.6332 7.68977 11.4142L6.02755 13.0764C4.65748 14.4465 4.65748 16.6024 6.02755 17.9725C7.39761 19.3425 9.5535 19.3425 10.9236 17.9725L12.5858 16.3102C13.3668 15.5292 14.6332 15.5292 15.4142 16.3102C16.1953 17.0913 16.1953 18.3576 15.4142 19.1387L13.752 20.8009C10.8198 23.733 6.13128 23.733 3.19912 20.8009C0.26696 17.8687 0.26696 13.1802 3.19912 10.248L4.86134 8.58579C5.64239 7.80474 6.90872 7.80474 7.68977 8.58579Z" fill="black"/>
</svg>

<svg xmlns="http://www.w3.org/2000/svg" fill="none" viewBox="0 0 24 24"><path fill="#000" fill-rule="evenodd" d="M17.973 6.028a3.43 3.43 0 0 0-4.897 0L11.414 7.69a2 2 0 1 1-2.828-2.83l1.662-1.66a7.43 7.43 0 0 1 10.553 0 7.43 7.43 0 0 1 0 10.553l-1.662 1.662a2 2 0 1 1-2.829-2.828l1.663-1.662a3.43 3.43 0 0 0 0-4.896m-1.559 1.558a2 2 0 0 1 0 2.828l-6 6a2 2 0 1 1-2.828-2.828l6-6a2 2 0 0 1 2.828 0m-8.724 1a2 2 0 0 1 0 2.828l-1.662 1.662a3.43 3.43 0 0 0 0 4.897 3.43 3.43 0 0 0 4.896 0l1.662-1.663a2 2 0 0 1 2.828 2.829l-1.662 1.66a7.43 7.43 0 0 1-10.553 0 7.43 7.43 0 0 1 0-10.553l1.662-1.662a2 2 0 0 1 2.829 0" clip-rule="evenodd"/></svg>
